lib/healthicons/icons/outline/typography/6.svg

<svg fill="none" height="48" viewBox="0 0 48 48" width="48" xmlns="http://www.w3.org/2000/svg"><path clip-rule="evenodd" d="m34.4836 14.9955c-1.2425-3.4966-4.588-5.9955-8.5157-5.9955h-3.9358c-4.9728 0-9.0321 4.014-9.0321 9v12c0 4.986 4.0593 9 9.0321 9h3.9358c4.9728 0 9.0321-4.014 9.0321-9s-4.0593-9-9.0321-9h-3.9358c-1.062 0-2.0831.1833-3.0321.5203v-3.5203c0-1.6425 1.3432-3 3.0321-3h3.9358c1.3264 0 2.4488.8415 2.862 2.0045.5548 1.5612 2.2701 2.3771 3.8314 1.8223 1.5612-.5547 2.3771-2.2701 1.8223-3.8313zm-8.5157-3.9955c3.0596 0 5.6647 1.9455 6.6311 4.6652.185.5204-.087 1.0922-.6074 1.2771s-1.0922-.0871-1.2771-.6075c-.6902-1.9423-2.5547-3.3348-4.7466-3.3348h-3.9358c-2.7849 0-5.0321 2.2444-5.0321 5v5.0799c0 .3575.1909.6878.5006.8664.3098.1785.6912.1781 1.0006-.001 1.0378-.6011 2.2434-.9453 3.5309-.9453h3.9358c3.8791 0 7.0321 3.1294 7.0321 7s-3.153 7-7.0321 7h-3.9358c-3.879 0-7.0321-3.1294-7.0321-7v-12c0-3.8706 3.1531-7 7.0321-7zm0 16c1.6889 0 3.0321 1.3575 3.0321 3s-1.3432 3-3.0321 3h-3.9358c-1.6889 0-3.0321-1.3575-3.0321-3s1.3432-3 3.0321-3zm5.0321 3c0-2.7556-2.2471-5-5.0321-5h-3.9358c-2.7849 0-5.0321 2.2444-5.0321 5s2.2472 5 5.0321 5h3.9358c2.785 0 5.0321-2.2444 5.0321-5z" fill="#333" fill-rule="evenodd"/></svg>

<svg width="48" height="48" viewBox="0 0 48 48" fill="none" xmlns="http://www.w3.org/2000/svg">
<path fill-rule="evenodd" clip-rule="evenodd" d="M34.4836 14.9955C33.2411 11.4989 29.8956 9 25.9679 9H22.0321C17.0593 9 13 13.014 13 18V30C13 34.986 17.0593 39 22.0321 39H25.9679C30.9407 39 35 34.986 35 30C35 25.014 30.9407 21 25.9679 21H22.0321C20.9701 21 19.949 21.1833 19 21.5203V18C19 16.3575 20.3432 15 22.0321 15H25.9679C27.2943 15 28.4167 15.8415 28.8299 17.0045C29.3847 18.5657 31.1 19.3816 32.6613 18.8268C34.2225 18.2721 35.0384 16.5567 34.4836 14.9955ZM25.9679 11C29.0275 11 31.6326 12.9455 32.599 15.6652C32.784 16.1856 32.512 16.7574 31.9916 16.9423C31.4712 17.1272 30.8994 16.8552 30.7145 16.3348C30.0243 14.3925 28.1598 13 25.9679 13H22.0321C19.2472 13 17 15.2444 17 18V23.0799C17 23.4374 17.1909 23.7677 17.5006 23.9463C17.8104 24.1248 18.1918 24.1244 18.5012 23.9453C19.539 23.3442 20.7446 23 22.0321 23H25.9679C29.847 23 33 26.1294 33 30C33 33.8706 29.847 37 25.9679 37H22.0321C18.1531 37 15 33.8706 15 30V18C15 14.1294 18.1531 11 22.0321 11H25.9679ZM25.9679 27C27.6568 27 29 28.3575 29 30C29 31.6425 27.6568 33 25.9679 33H22.0321C20.3432 33 19 31.6425 19 30C19 28.3575 20.3432 27 22.0321 27H25.9679ZM31 30C31 27.2444 28.7529 25 25.9679 25H22.0321C19.2472 25 17 27.2444 17 30C17 32.7556 19.2472 35 22.0321 35H25.9679C28.7529 35 31 32.7556 31 30Z" fill="#333333"/>
</svg>
